!!!!SEGMENT: pl-kk--kk-i-272--003_anonim--alleluia-post-partum-virgo.krn
!!!cenid: 17xx:2072
!!!COM: Anonim
!!!COM-rismid: pe30004985
!!!CDT:
!!!CNT:
!!!OTL: Alleluia post partum Virgo
!!!PDT:
!!!AGN: Sacred
!!!SMS-siglum: PL-Kk
!!!SMS-shelfmark: Kk.I.272
!!!SMS-shelfwork: 003 W
!!!SMS-variant:
!!!SMS-altvar:
!!!NIFC-rismid: 1001147276
!!!URL-scan: http://repozytorium.nifc.pl/skany/pl-kk-nut--i-272
!!!ONB-nifc: UWAGA: utwory w zbiorze: 1. Rorate caeli, 2. Tollite portas, 3. Alleluia. Post partum Virgo
**kern	**fba	**text	**kern	**fba	**text	**kern	**text	**kern	**text	**kern	**text
*part5	*	*part5	*part4	*	*part4	*part3	*part3	*part2	*part2	*part1	*part1
*staff5	*	*staff5	*staff4	*	*staff4	*staff3	*staff3	*staff2	*staff2	*staff1	*staff1
*I"Baſso Ripieno	*	*	*I"Baſso.	*	*	*I"Tenore	*	*I"Alto.	*	*I"Canto.	*
*I'B rip	*	*	*I'B	*	*	*I'T	*	*I'A	*	*I'S	*
*clefF4	*	*	*clefF4	*	*	*clefC4	*	*clefC3	*	*clefC1	*
*k[]	*	*	*k[]	*	*	*k[]	*	*k[]	*	*k[]	*
*M2/1	*	*	*M2/1	*	*	*M2/1	*	*M2/1	*	*M2/1	*
*met(c|)	*	*	*met(c|)	*	*	*met(c|)	*	*met(c|)	*	*lig	*
*>[ABA]	*	*	*>[ABA]	*	*	*>[ABA]	*	*>[ABA]	*	*>[ABA]	*
=1	=1	=1	=1	=1	=1	=1	=1	=1	=1	=1	=1
*>A	*	*	*>A	*	*	*>A	*	*>A	*	*>A	*
!LO:TX:i:t=Poſt Nativitatem	!	!	!LO:TX:i:t=à Nativitate usq(ue) ad Purificationem	!	!	!LO:TX:i:t=À Nativitate D(omi)ni\nusq(ue) ad Purificationem	!	!LO:TX:i:t=À Nativitate D(omi)ni\nusq(ue) ad Purificationem	!	!LO:TX:i:t=À Nativitate D(omi)ni\nusq(ue) ad Purificationem	!
*	*	*	*2\right	*	*	*	*	*	*	*	*
2C/	.	Al-	2C/	.	Al-	1G/	Al-	1c\	Al-	1c/	Al-
*2\right	*	*	*	*	*	*	*	*2\right	*	*	*
2E\	.	-le-	2E\	.	-le-	.	.	.	.	.	.
2.F\	.	.	2.F\	.	.	2F/	-le-	2A/	-le-	1d/	.
.	.	.	.	.	.	4D/	.	[<2d\	.	.	.
!LO:TX:t=P:problem:kreska pseudotaktowa	!	!	!LO:TX:t=P:problem:kreska pseudotaktowa	!	!	!LO:TX:t=P:problem:kreska pseudotaktowa	!	!	!	!	!
4G\	.	.	4G\	.	.	4E/	.	.	.	.	.
!	!	!	!	!	!	!	!	!LO:TX:t=P:problem:kreska pseudotaktowa	!	!	!
*	*	*	*	*	*	*	*	*	*	*Xlig	*
=2-	=2-	=2-	=2-	=2-	=2-	=2-	=2-	=2-	=2-	=2-	=2-
*	*	*	*	*	*	*	*	*	*	*lig	*
!	!	!	!	!	!	!	!	!LO:N:xstem:cue	!	!LO:TX:a:t=e.	!
4A\	.	.	4A\	.	.	4F/	.	4d\]	.	1e/	-le-
4G\	.	.	4G\	.	.	4G/	.	4e\	.	.	.
!	!	!	!	!	!	!	!	!LO:TX:t=P:problem:kreska pseudotaktowa	!	!	!
4F\	.	.	4F\	.	.	1A\	.	[<2f\	.	.	.
!	!	!	!LO:TX:t=P:problem:kreska pseudotaktowa	!	!	!	!	!	!	!	!
4E\	.	.	4E\	.	.	.	.	.	.	.	.
!LO:TX:t=P:problem:kreska pseudotaktowa	!	!	!LO:TX:t=P:problem:kreska pseudotaktowa	!	!	!	!	!LO:N:xstem:cue	!	!LO:TX:a:t=f.	!
[<1D\	.	.	[<1D\	.	.	.	.	4f\]	.	1f/	.
.	.	.	.	.	.	.	.	4e\	.	.	.
!	!	!	!	!	!	!LO:TX:t=P:problem:kreska pseudotaktowa	!	!	!	!	!
.	.	.	.	.	.	2F/	lu-	4d\	.	.	.
!	!	!	!	!	!	!	!	!LO:TX:t=P:problem:kreska pseudotaktowa	!	!	!
.	.	.	.	.	.	.	.	4c\	.	.	.
*	*	*	*	*	*	*	*	*	*	*Xlig	*
=3-	=3-	=3-	=3-	=3-	=3-	=3-	=3-	=3-	=3-	=3-	=3-
*	*	*	*	*	*	*2\right	*	*	*	*lig	*
2.D/]	.	.	2.D/]	.	.	2A,<\	-ia	1d\	.	1f/	-lu-
!	!	!	!	!	!	!LO:TX:t=P:problem:kreska pseudotaktowa	!	!	!	!	!
.	.	.	.	.	.	2B\	al-	.	.	.	.
8C/L	.	.	8C/L	.	.	.	.	.	.	.	.
!LO:TX:t=P:problem:kreska pseudotaktowa	!	!	!	!	!	!	!	!	!	!	!
8BB/J	.	.	8BB/J	.	.	.	.	.	.	.	.
4AA/	.	.	4AA/	.	.	2c\	.	2e\	.	1e/	.
4BB/	.	.	4BB/	.	.	.	.	.	.	.	.
!	!	!	!LO:TX:t=P:problem:kreska pseudotaktowa	!	!	!	!	!LO:TX:t=P:problem:kreska pseudotaktowa	!	!	!
2C/	.	.	2C/	.	.	1A\	.	2c\	.	.	.
*	*	*	*	*	*	*	*	*	*	*Xlig	*
=4-	=4-	=4-	=4-	=4-	=4-	=4-	=4-	=4-	=4-	=4-	=4-
!	!	!	!	!	!	!	!	!	!	!LO:TX:t=P:problem:kreska pseudotaktowa	!
0BBn/	.	-lu-	0BBn/	7	-lu-	.	.	0d\	lu-	1d/	-ia
.	.	.	.	.	.	4G/	-le-	.	.	.	.
.	.	.	.	.	.	4F/	.	.	.	.	.
!	!	!	!	!	!	!LO:TX:t=P:problem:kreska pseudotaktowa	!	!	!	!	!
*	*	*	*	*	*	*	*	*	*	*lig	*
.	.	.	.	6	.	1G/	-lu-	.	.	1d/	.
=5-	=5-	=5-	=5-	=5-	=5-	=5-	=5-	=5-	=5-	=5-	=5-
!LO:TX:t=P:problem:kreska pseudotaktowa	!	!	!	!	!	!LO:TX:t=P:problem:kreska pseudotaktowa	!	!	!	!	!
1AA/,<	.	-ia	1AA/,<	.	-ia	0A\	-ia	2c\	-ia	1e/	.
!	!	!	!	!	!	!	!	!LO:TX:t=P:problem:kreska pseudotaktowa	!	!	!
.	.	.	.	.	.	.	.	2e\	al-	.	.
*	*	*	*	*	*	*	*	*	*	*Xlig	*
!	!	!	!LO:TX:t=P:problem:kreska pseudotaktowa	!	!	!	!	!	!	!	!
1D\	.	al-	1D\	.	al-	.	.	2d\	.	1f/	.
!	!	!	!	!	!	!	!	!LO:TX:t=P:problem:kreska pseudotaktowa	!	!	!
.	.	.	.	.	.	.	.	2f\	.	.	.
=6-	=6-	=6-	=6-	=6-	=6-	=6-	=6-	=6-	=6-	=6-	=6-
*	*	*	*	*	*	*	*	*	*	*lig	*
2C/	.	-le-	2C/	.	-le-	2rF	.	2e\	.	1g\	.
!	!	!	!	!	!	!LO:TX:t=P:problem:kreska pseudotaktowa	!	!	!	!	!
!LO:TX:t=P:problem:kreska pseudotaktowa	!	!	!LO:TX:t=P:problem:kreska pseudotaktowa	!	!	!LO:SIC:v:t=custos “E” na końcu linijki	!	!LO:TX:t=P:problem:kreska pseudotaktowa	!	!	!
2BBn/	.	.	2BBn/	.	.	2D/	al-	2d\	.	.	.
!	!	!	!	!	!	!LO:LB:g=original	!	!	!	!	!
2AA/	.	.	2AA/	.	.	4E/	.	2c/	-le-	1e/	.
.	.	.	.	.	.	4F/	.	.	.	.	.
!LO:TX:t=P:problem:kreska pseudotaktowa	!	!	!LO:TX:t=P:problem:kreska pseudotaktowa	!	!	!LO:TX:t=P:problem:kreska pseudotaktowa	!	!	!	!	!
2GG/	.	.	2GG/	.	.	2G/	.	2B/	.	.	.
*	*	*	*	*	*	*	*	*	*	*Xlig	*
=7-	=7-	=7-	=7-	=7-	=7-	=7-	=7-	=7-	=7-	=7-	=7-
*	*	*	*	*	*	*	*	*	*	*lig	*
1FF/	.	.	1FF/	.	.	1A\	.	2A/	.	1f/	.
.	.	.	.	.	.	.	.	1c\	.	.	.
!LO:TX:t=P:problem:kreska pseudotaktowa	!	!	!LO:TX:t=P:problem:kreska pseudotaktowa	!	!	!LO:TX:t=P:problem:kreska pseudotaktowa	!	!	!	!	!
1GG/	.	.	1GG/	.	.	1G/	.	.	.	1d/	.
!	!	!	!	!	!	!	!	!LO:TX:t=P:problem:kreska pseudotaktowa	!	!	!
!	!	!	!	!	!	!	!	!LO:SIC:v:t=custos “c” na końcu linijki	!	!	!
.	.	.	.	.	.	.	.	2B/	-lu-	.	.
*	*	*	*	*	*	*	*	*	*	*Xlig	*
=8-	=8-	=8-	=8-	=8-	=8-	=8-	=8-	=8-	=8-	=8-	=8-
*	*	*	*	*	*	*	*	*	*	*lig	*
!	!	!	!	!	!	!	!	!LO:LB:g=original	!	!	!
2AA/	.	.	2AA/	.	.	2.E/	-le-	2c\	-ia	1c/	.
!LO:TX:t=P:problem:kreska pseudotaktowa	!	!	!LO:TX:t=P:problem:kreska pseudotaktowa	!	!	!	!	!LO:TX:t=P:problem:kreska pseudotaktowa	!	!	!
2C/	.	.	2C/	.	.	.	.	2e\	al-	.	.
!	!	!	!	!	!	!LO:TX:t=P:problem:kreska pseudotaktowa	!	!	!	!	!
.	.	.	.	.	.	4F/	.	.	.	.	.
2BBn/	.	.	2BB/	.	.	2G/	.	2d\	-le-	1d/	.
!LO:TX:t=P:problem:kreska pseudotaktowa	!	!	!LO:TX:t=P:problem:kreska pseudotaktowa	!	!	!	!	!	!	!	!
2D/	.	.	2D/	.	.	4A\	.	2.f\	.	.	.
!	!	!	!	!	!	!LO:TX:t=P:problem:kreska pseudotaktowa	!	!	!	!	!
.	.	.	.	.	.	4B\	.	.	.	.	.
*	*	*	*	*	*	*	*	*	*	*Xlig	*
=9-	=9-	=9-	=9-	=9-	=9-	=9-	=9-	=9-	=9-	=9-	=9-
*	*	*	*	*	*	*	*	*	*	*lig	*
1C/	.	.	1C/	.	.	1c\	.	.	.	1e/	.
.	.	.	.	.	.	.	.	4e\	.	.	.
.	.	.	.	.	.	.	.	1e\	.	.	.
!LO:TX:i:t=g	!	!	!	!	!	!	!	!	!	!	!
1D\	7	-lu-	1D\	7	-lu-	1A\	-lu-	.	.	1f/	.
!LO:TX:i:t=a	!	!	!	!	!	!	!	!LO:TX:t=P:problem:kreska pseudotaktowa	!	!	!
.	6	.	.	6	.	.	.	2d\	-lu-	.	.
*	*	*	*	*	*	*	*	*	*	*Xlig	*
=10-	=10-	=10-	=10-	=10-	=10-	=10-	=10-	=10-	=10-	=10-	=10-
!	!	!	!	!	!	!	!	!LO:N:vis=1	!	!	!
0C/;	.	-ia	0C/;	.	-ia	0c\;	-ia.	0e\;	-ia.	0e/;	.
=11||	=11||	=11||	=11||	=11||	=11||	=11||	=11||	=11||	=11||	=11||	=11||
*>B	*	*	*>B	*	*	*>B	*	*>B	*	*>B	*
*M2/1	*	*	*M2/1	*	*	*M2/1	*	*M2/1	*	*M2/1	*
*met(c|)	*	*	*met(c|)	*	*	*met(c|)	*	*met(c|)	*	*met(c|)	*
!	!	!	!LO:LB:g=original	!	!	!	!	!	!	!LO:TX:t=P:problem:kreska pseudotaktowa	!
!LO:PB:g=original	!	!	!LO:TX:t=P:problem:kreska pseudotaktowa	!	!	!	!	!	!	!LO:LB:g=original	!
!LO:TX:t=P:problem:kreska pseudotaktowa	!	!	!	!	!	!	!	!	!	!	!
1D\	.	Post	1D\	.	Post	1A\	Post	1d\	Post	1f/	Post
*	*	*	*	*	*	*lig	*	*	*	*	*
*	*	*	*	*	*	*	*	*	*	*lig	*
!LO:TX:t=P:problem:kreska pseudotaktowa	!	!	!LO:TX:t=P:problem:kreska pseudotaktowa	!	!	!	!	!LO:TX:t=P:problem:kreska pseudotaktowa	!	!	!
1D\	.	par-	1D\	.	par-	1A\	par-	[<1d\	par-	1f/	par-
=12-	=12-	=12-	=12-	=12-	=12-	=12-	=12-	=12-	=12-	=12-	=12-
(4GG/	.	.	4GG/	.	.	1G/	.	2d\]	.	1d/	.
4AA/	.	.	4AA/	.	.	.	.	.	.	.	.
4BBn/	.	.	4BBn/	.	.	.	.	4c/	.	.	.
!LO:TX:t=P:problem:kreska pseudotaktowa	!	!	!LO:TX:t=P:problem:kreska pseudotaktowa	!	!	!	!	!LO:TX:t=P:problem:kreska pseudotaktowa	!	!	!
4C/)	.	.	4C/	.	.	.	.	4B/	.	.	.
*	*	*	*	*	*	*Xlig	*	*	*	*Xlig	*
*	*	*	*	*	*	*	*	*	*	*lig	*
!LO:TX:t=P:problem:kreska pseudotaktowa	!	!	!	!	!	!	!	!	!	!	!
1D\	.	-tum	1D\	.	-tum	2F/	-tum	2A/	.	1f/	.
!	!	!	!	!	!	!LO:TX:t=P:problem:kreska pseudotaktowa	!	!	!	!	!
.	.	.	.	.	.	[2A/	Vir-	1d\	.	.	.
=13-	=13-	=13-	=13-	=13-	=13-	=13-	=13-	=13-	=13-	=13-	=13-
!	!	!	!	!	!	!LO:N:xstem:cue	!	!	!	!	!
2r	.	.	2r	.	.	4A/]	.	.	.	1d/	.
.	.	.	.	.	.	4F/	.	.	.	.	.
!LO:TX:t=P:problem:kreska pseudotaktowa	!	!	!LO:TX:t=P:problem:kreska pseudotaktowa	!	!	!LO:TX:t=P:problem:kreska pseudotaktowa	!	!LO:TX:t=P:problem:kreska pseudotaktowa	!	!	!
2GG/	.	Vir-	2GG/	.	Vir-	2G/	.	2B/	-tum	.	.
*	*	*	*	*	*	*	*	*	*	*Xlig	*
!	!	!	!	!	!	!	!	!	!	!LO:TX:t=P:problem:kreska pseudotaktowa	!
2AA/	.	.	2AA/	.	.	2E/	.	2c\	Vir-	1c/	-tum
2C/	.	.	2C/	.	.	1A\	.	2e\	.	.	.
=14-	=14-	=14-	=14-	=14-	=14-	=14-	=14-	=14-	=14-	=14-	=14-
!	!	!	!	!	!	!	!	!LO:TX:t=P:problem:kreska pseudotaktowa	!	!	!
1BBn/	.	.	1BBn/	.	.	.	.	1d\	.	1d/	Vir-
!	!	!	!	!	!	!LO:TX:t=P:problem:kreska pseudotaktowa	!	!	!	!	!
.	.	.	.	.	.	2G/	.	.	.	.	.
!LO:TX:t=P:problem:kreska pseudotaktowa	!	!	!LO:TX:t=P:problem:kreska pseudotaktowa	!	!	!	!	!	!	!LO:TX:t=P:problem:kreska pseudotaktowa	!
0AA/	.	-go.	0AA/	.	-go	1A\	-go	2c,</	-go	1e/,<	-go
.	.	.	.	.	.	.	.	2e\	in-	.	.
=15-	=15-	=15-	=15-	=15-	=15-	=15-	=15-	=15-	=15-	=15-	=15-
!	!	!	!	!	!	!	!	!LO:TX:t=P:problem:kreska pseudotaktowa	!	!	!
.	.	.	.	.	.	2r	.	1c\	-vi-	1e/	in-
!	!	!	!	!	!	!LO:TX:t=P:problem:kreska pseudotaktowa	!	!	!	!	!
.	.	.	.	.	.	2A\	in-	.	.	.	.
2r	.	.	2r	.	.	2G/	-vi-	1e\	-o-	1c/	-vi-
!	!	!	!	!	!	!LO:TX:t=P:problem:kreska pseudotaktowa	!	!	!	!	!
!LO:TX:t=P:problem:kreska pseudotaktowa	!	!	!LO:TX:t=P:problem:kreska pseudotaktowa	!	!	!LO:SIC:v:t=custos “G” na końcu linijki	!	!	!	!	!
2E\	.	in-	2E\	.	in-	2G/	-o-	.	.	.	.
=16-	=16-	=16-	=16-	=16-	=16-	=16-	=16-	=16-	=16-	=16-	=16-
!LO:TX:t=P:problem:kreska pseudotaktowa	!	!	!	!	!	!LO:LB:g=original	!	!	!	!	!
1C/	.	-vi-	1C/	.	-vi-	2G/	-la-	2.g\	-la-	1e/	-o-
.	.	.	.	.	.	1c\	.	.	.	.	.
!	!	!	!	!	!	!	!	!LO:TX:t=P:problem:kreska pseudotaktowa	!	!	!
.	.	.	.	.	.	.	.	4f\	.	.	.
*	*	*	*	*	*	*	*	*	*	*lig	*
2E\	.	-o-	2E\	.	-o-	.	.	4e\	.	1g\	-la-
.	.	.	.	.	.	.	.	4c\	.	.	.
!LO:TX:t=P:problem:kreska pseudotaktowa	!	!	!LO:TX:t=P:problem:kreska pseudotaktowa	!	!	!LO:TX:t=P:problem:kreska pseudotaktowa	!	!	!	!	!
2G\	.	-la-	2G\	.	-la-	2B\	.	4d\	.	.	.
!	!	!	!	!	!	!	!	!LO:TX:t=P:problem:kreska pseudotaktowa	!	!	!
.	.	.	.	.	.	.	.	4e\	.	.	.
=17-	=17-	=17-	=17-	=17-	=17-	=17-	=17-	=17-	=17-	=17-	=17-
4F\	.	.	4F\	.	.	2c\	.	2.f\	.	1a\	.
4E\	.	.	4E\	.	.	.	.	.	.	.	.
4D\	.	.	4D\	.	.	2d\	.	.	.	.	.
!LO:TX:t=P:problem:kreska pseudotaktowa	!	!	!LO:TX:t=P:problem:kreska pseudotaktowa	!	!	!	!	!LO:TX:t=P:problem:kreska pseudotaktowa	!	!	!
4C\	.	.	4C/	.	.	.	.	4e\	.	.	.
*	*	*	*	*	*	*lig	*	*	*	*Xlig	*
*	*	*	*	*	*	*	*	*	*	*lig	*
(1D\	.	.	(1D\	.	.	1A\	.	4d\	.	1f/	.
.	.	.	.	.	.	.	.	4e\	.	.	.
!	!	!	!	!	!	!	!	!LO:TX:t=P:problem:kreska pseudotaktowa	!	!	!
!	!	!	!	!	!	!	!	!LO:SIC:v:t=custos “e” na końcu linijki	!	!	!
.	.	.	.	.	.	.	.	2f\	.	.	.
=18-	=18-	=18-	=18-	=18-	=18-	=18-	=18-	=18-	=18-	=18-	=18-
!	!	!	!	!	!	!LO:TX:t=P:problem:kreska pseudotaktowa	!	!LO:LB:g=original	!	!	!
1GG/)	.	.	1GG/)	.	.	1B\	.	2e\	.	1g\	.
.	.	.	.	.	.	.	.	2.d\	.	.	.
*	*	*	*	*	*	*Xlig	*	*	*	*Xlig	*
!LO:TX:t=P:problem:kreska pseudotaktowa	!	!	!LO:TX:t=P:problem:kreska pseudotaktowa	!	!	!LO:TX:t=P:problem:kreska pseudotaktowa	!	!	!	!	!
1AA/	.	-ta	1AA/	.	-ta	0.A\	-ta	.	.	1e/	.
!	!	!	!	!	!	!	!	!LO:TX:a:t=P:problem:# below	!	!	!
.	.	.	.	.	.	.	.	4c#X/	.	.	.
!	!	!	!	!	!	!	!	!LO:TX:t=P:problem:kreska pseudotaktowa	!	!	!
.	.	.	.	.	.	.	.	2c#/	.	.	.
=19-	=19-	=19-	=19-	=19-	=19-	=19-	=19-	=19-	=19-	=19-	=19-
*	*	*	*	*	*	*	*	*	*	*lig	*
2r	.	.	2rBB	.	.	.	.	1d\,<	-ta	1d/	.
1D\	.	per-	1D\	.	per-	.	.	.	.	.	.
.	.	.	.	.	.	.	.	2r	.	1f/	.
!LO:TX:t=P:problem:kreska pseudotaktowa	!	!	!LO:TX:t=P:problem:kreska pseudotaktowa	!	!	!	!	!LO:TX:t=P:problem:kreska pseudotaktowa	!	!	!
2D\	.	-man-	2D\	.	-man-	.	.	2d\	per-	.	.
*	*	*	*	*	*	*	*	*	*	*Xlig	*
=20-	=20-	=20-	=20-	=20-	=20-	=20-	=20-	=20-	=20-	=20-	=20-
!	!	!	!	!	!	!	!	!	!	!LO:TX:t=P:problem:kreska pseudotaktowa	!
2F\	.	-si-	2F\	.	-si-	2rF	.	2d\	-man-	1d/,<	ta
!LO:TX:t=P:problem:kreska pseudotaktowa	!	!	!LO:TX:t=P:problem:kreska pseudotaktowa	!	!	!	!	!LO:TX:t=P:problem:kreska pseudotaktowa	!	!	!
2D\	.	.	2D\	.	-ſti	1A\	per-	2f\	.	.	.
2.F\	.	.	2.F\	.	per-	.	.	2d\	.	1d/	per-
!	!	!	!	!	!	!LO:TX:t=P:problem:kreska pseudotaktowa	!	!	!	!	!
.	.	.	.	.	.	2A\	-man-	1f\	.	.	.
!LO:TX:t=P:problem:kreska pseudotaktowa	!	!	!LO:TX:t=P:problem:kreska pseudotaktowa	!	!	!	!	!	!	!	!
4G\	.	.	4G\	.	.	.	.	.	.	.	.
=21-	=21-	=21-	=21-	=21-	=21-	=21-	=21-	=21-	=21-	=21-	=21-
*	*	*	*	*	*	*	*	*	*	*lig	*
!LO:LB:g=original	!	!	!	!	!	!	!	!	!	!	!
2A\	.	.	2A\	.	.	2.F/	-si-	.	.	1d/	-man-
1F\	.	.	1F\	.	.	.	.	4e\	-si-	.	.
!	!	!	!	!	!	!LO:TX:t=P:problem:kreska pseudotaktowa	!	!LO:TX:t=P:problem:kreska pseudotaktowa	!	!	!
.	.	.	.	.	.	4G/	.	4d\	.	.	.
.	.	.	.	.	.	4A\	.	2cny,<\	-ſti	1f/	.
.	.	.	.	.	.	4G\	.	.	.	.	.
4E\	.	.	4E\	.	.	4A\	.	2d\	per-	.	.
!	!	!	!LO:TX:t=P:problem:kreska pseudotaktowa	!	!	!LO:TX:t=P:problem:kreska pseudotaktowa	!	!	!	!	!
4D\	.	.	4D\	.	.	4B\	.	.	.	.	.
*	*	*	*	*	*	*	*	*	*	*Xlig	*
=22-	=22-	=22-	=22-	=22-	=22-	=22-	=22-	=22-	=22-	=22-	=22-
*lig	*	*	*	*	*	*	*	*	*	*lig	*
!	!	!	!LO:LB:g=original	!	!	!	!	!	!	!	!
1C/	.	.	1C/	.	-man-	1c\	.	1e\	.	1e/	-si-
1D\	.	.	1D\	.	.	2A\	.	2d\	-man-	1f/	.
!	!	!	!	!	!	!LO:TX:t=P:problem:kreska pseudotaktowa	!	!LO:TX:t=P:problem:kreska pseudotaktowa	!	!	!
.	.	.	.	.	.	2d\	.	[<2f\	.	.	.
*Xlig	*	*	*	*	*	*	*	*	*	*Xlig	*
=23-	=23-	=23-	=23-	=23-	=23-	=23-	=23-	=23-	=23-	=23-	=23-
!	!	!	!	!	!	!	!	!LO:N:xstem:cue	!	!	!
2E\	.	.	2E\	.	-si-	2B\	.	4f\]	.	1g\	.
.	.	.	.	.	.	.	.	4e\	.	.	.
!LO:TX:t=P:problem:kreska pseudotaktowa	!	!	!LO:TX:t=P:problem:kreska pseudotaktowa	!	!	!LO:TX:t=P:problem:kreska pseudotaktowa	!	!	!	!	!
2C,</	.	-sti	2C,</	.	-ſti	2c\	.	1e\	.	.	.
*	*	*	*	*	*	*	*	*	*	*lig	*
1D\	.	per-	1D\	.	per-	2A,<\	-sti	.	.	1f/	-sti
!	!	!	!	!	!	!	!	!LO:TX:t=P:problem:kreska pseudotaktowa	!	!	!
.	.	.	.	.	.	1A\	per-	2d\	-si-	.	.
=24-	=24-	=24-	=24-	=24-	=24-	=24-	=24-	=24-	=24-	=24-	=24-
!	!	!	!	!	!	!	!	!	!	!LO:TX:t=P:problem:kreska pseudotaktowa	!
!	!	!	!	!	!	!	!	!LO:TX:t=P:problem:kreska pseudotaktowa	!	!LO:SIC:v:t=custos “e” na końcu linijki	!
2A\	.	.	2AA/	.	.	.	.	1e\	-sti,	1e/,<	.
!	!	!	!LO:TX:t=P:problem:kreska pseudotaktowa	!	!	!LO:TX:t=P:problem:kreska pseudotaktowa	!	!	!	!	!
2G#X\	.	-man-	2GG#X/	.	-man-	2B\	-man-	.	.	.	.
*	*	*	*	*	*	*	*	*	*	*Xlig	*
!	!	!	!	!	!	!	!	!	!	!LO:LB:g=original	!
(2A\	.	-si-	1AA/	.	-si-	1c\	-si-	2r	.	1e/	De-
!LO:TX:t=P:problem:kreska pseudotaktowa	!	!	!	!	!	!	!	!	!	!	!
2AA/)	.	.	.	.	.	.	.	1e\	De-	.	.
=25-	=25-	=25-	=25-	=25-	=25-	=25-	=25-	=25-	=25-	=25-	=25-
*	*	*	*	*	*	*	*	*	*	*lig	*
2E,<\	.	-sti	2E,<\	.	-ſti,	2B,<\	-sti	.	.	1g\	-i
!LO:TX:t=P:problem:kreska pseudotaktowa	!	!	!LO:TX:t=P:problem:kreska pseudotaktowa	!	!	!LO:TX:t=P:problem:kreska pseudotaktowa	!	!LO:TX:t=P:problem:kreska pseudotaktowa	!	!	!
2E\	.	De-	2E\	.	De-	2e\	De-	2c\	-i	.	.
!	!	!	!	!	!	!	!	!	!	!LO:TX:t=P:problem:kreska pseudotaktowa	!
2D/	.	.	2D/	.	.	2f\	.	2d\	Ge-	1a\	.
!	!	!	!	!	!	!LO:TX:t=P:problem:kreska pseudotaktowa	!	!LO:TX:t=P:problem:kreska pseudotaktowa	!	!	!
!LO:TX:t=P:problem:kreska pseudotaktowa	!	!	!LO:TX:t=P:problem:kreska pseudotaktowa	!	!	!LO:SIC:v:t=custos “d” na końcu linijki	!	!	!	!	!
2C#X/	.	-i	2C#X/	.	-i	2e\	-i	2e\	.	.	.
*	*	*	*	*	*	*	*	*	*	*Xlig	*
=26-	=26-	=26-	=26-	=26-	=26-	=26-	=26-	=26-	=26-	=26-	=26-
*	*	*	*	*	*	*	*	*	*	*lig	*
!	!	!	!	!	!	!LO:LB:g=original	!	!	!	!	!
1D\	.	Ge-	1D\	.	Ge-	2d\	Ge-	1f\	.	1a\	Ge-
!	!	!	!	!	!	!LO:TX:t=P:problem:kreska pseudotaktowa	!	!	!	!	!
.	.	.	.	.	.	2d\	-ni-	.	.	.	.
2.AA/	.	.	2.AA/	.	.	2c,<\	-trix	2e\	.	1cc\	.
!	!	!	!	!	!	!	!	!LO:TX:t=P:problem:kreska pseudotaktowa	!	!	!
.	.	.	.	.	.	1A\	De-	[<2e\	.	.	.
!LO:TX:t=P:problem:kreska pseudotaktowa	!	!	!LO:TX:t=P:problem:kreska pseudotaktowa	!	!	!	!	!	!	!	!
4BB/	.	.	4BB/	.	.	.	.	.	.	.	.
*	*	*	*	*	*	*	*	*	*	*Xlig	*
=27-	=27-	=27-	=27-	=27-	=27-	=27-	=27-	=27-	=27-	=27-	=27-
*	*	*	*	*	*	*	*	*	*	*lig	*
!	!	!	!	!	!	!	!	!LO:N:xstem:cue	!	!	!
2Cny/	.	.	2Cny/	.	.	.	.	4e\]	.	1a\	.
.	.	.	.	.	.	.	.	4d\	.	.	.
!LO:TX:t=P:problem:kreska pseudotaktowa	!	!	!LO:TX:t=P:problem:kreska pseudotaktowa	!	!	!LO:TX:t=P:problem:kreska pseudotaktowa	!	!	!	!	!
2D\	.	.	2D\	.	.	2F/	-i	1d\	.	.	.
1E\	.	.	1E\	.	.	1G/	Ge-	.	.	1g\	.
!	!	!	!	!	!	!	!	!LO:TX:t=P:problem:kreska pseudotaktowa	!	!	!
.	.	.	.	.	.	.	.	2c\	-ni-	.	.
*	*	*	*	*	*	*	*	*	*	*Xlig	*
=28-	=28-	=28-	=28-	=28-	=28-	=28-	=28-	=28-	=28-	=28-	=28-
*	*	*	*	*	*	*	*	*	*	*lig	*
2.D\	.	.	2.D\	.	.	2.A\	.	2d,<\	-trix	1f/	.
!	!	!	!	!	!	!	!	!LO:TX:t=P:problem:kreska pseudotaktowa	!	!	!
!	!	!	!	!	!	!	!	!LO:SIC:v:t=custos “e” na końcu linijki	!	!	!
.	.	.	.	.	.	.	.	2f\	De-	.	.
!LO:TX:t=P:problem:kreska pseudotaktowa	!	!	!LO:TX:t=P:problem:kreska pseudotaktowa	!	!	!LO:TX:t=P:problem:kreska pseudotaktowa	!	!	!	!	!
4D\	.	-ni-	4D\	.	-ni-	4B\	.	.	.	.	.
!	!	!	!	!	!	!	!	!LO:LB:g=original	!	!	!
2C,</	.	-trix	2C,</	.	-trix	2c\	.	2e\	.	1g\	.
!LO:TX:t=P:problem:kreska pseudotaktowa	!	!	!LO:TX:t=P:problem:kreska pseudotaktowa	!	!	!LO:TX:t=P:problem:kreska pseudotaktowa	!	!LO:TX:t=P:problem:kreska pseudotaktowa	!	!	!
2BB/	.	De-	2BB/	.	De-	2d\	.	2d\	-i	.	.
*	*	*	*	*	*	*	*	*	*	*Xlig	*
=29-	=29-	=29-	=29-	=29-	=29-	=29-	=29-	=29-	=29-	=29-	=29-
2AA/	.	-i	2AA/	.	-i	2A\	.	2c\	Ge-	0a\	.
!LO:TX:t=P:problem:kreska pseudotaktowa	!	!	!LO:TX:t=P:problem:kreska pseudotaktowa	!	!	!	!	!LO:TX:t=P:problem:kreska pseudotaktowa	!	!	!
2D\	.	Ge-	2D/	.	Ge-	2f\	.	2d\	.	.	.
2C/	.	.	2C/	.	.	2e\	.	2e\	.	.	.
!LO:TX:t=P:problem:kreska pseudotaktowa	!	!	!LO:TX:t=P:problem:kreska pseudotaktowa	!	!	!	!	!LO:TX:t=P:problem:kreska pseudotaktowa	!	!	!
2D\	.	.	2D\	.	.	1d\	.	2f\	.	.	.
=30-	=30-	=30-	=30-	=30-	=30-	=30-	=30-	=30-	=30-	=30-	=30-
!LO:LB:g=original	!	!	!	!	!	!	!	!	!	!	!
4GG/	.	.	4GGny/	.	.	.	.	2g\	.	1g\	.
4AA/	.	.	4AA/	.	.	.	.	.	.	.	.
4BB/	.	.	4BB/	.	.	4c\	.	2.d\	.	.	.
!LO:TX:t=P:problem:kreska pseudotaktowa	!	!	!LO:TX:t=P:problem:kreska pseudotaktowa	!	!	!LO:TX:t=P:problem:kreska pseudotaktowa	!	!	!	!	!
4C/	.	.	4C/	.	.	4B\	.	.	.	.	.
*	*	*	*	*	*	*	*	*	*	*lig	*
2.D/	.	.	2.D/	.	.	2.A\	.	.	.	1f/	.
.	.	.	.	.	.	.	.	4e\	.	.	.
.	.	.	.	.	.	.	.	4f\	.	.	.
8C/L	.	.	8C/L	.	.	4B\	.	4d\	.	.	.
!LO:TX:t=P:problem:kreska pseudotaktowa	!	!	!LO:TX:t=P:problem:kreska pseudotaktowa	!	!	!	!	!	!	!	!
!	!	!	!LO:SIC:v:t=custos “AA” na końcu linijki	!	!	!	!	!	!	!	!
8BB/J	.	.	8BB/J	.	.	.	.	.	.	.	.
=31-	=31-	=31-	=31-	=31-	=31-	=31-	=31-	=31-	=31-	=31-	=31-
!	!	!	!LO:LB:g=original	!	!	!	!	!	!	!	!
4AA/	.	.	4AA/	.	.	2c\	.	2e\	.	1e/	.
4BB/	.	.	4BB/	.	.	.	.	.	.	.	.
!LO:TX:t=P:problem:kreska pseudotaktowa	!	!	!	!	!	!	!	!	!	!	!
2C/	.	.	2C/	.	.	1A\	.	2c/	-ni-	.	.
*	*	*	*	*	*	*	*	*	*	*Xlig	*
!	!	!	!	!	!	!	!	!LO:TX:t=P:problem:kreska pseudotaktowa	!	!	!
*	*	*	*	*	*	*	*	*	*	*lig	*
2.BBn/	.	.	2.BBn/	.	.	.	.	1d\,<	-trix	1d/	-ni-
!	!	!	!	!	!	!LO:TX:t=P:problem:kreska pseudotaktowa	!	!	!	!	!
.	.	.	.	.	.	2G/	-ni-	.	.	.	.
!LO:TX:t=P:problem:kreska pseudotaktowa	!	!	!LO:TX:t=P:problem:kreska pseudotaktowa	!	!	!	!	!	!	!	!
4BB/	.	ni-	4BB/	.	ni-	.	.	.	.	.	.
=32-	=32-	=32-	=32-	=32-	=32-	=32-	=32-	=32-	=32-	=32-	=32-
2AA,</	.	-trix	2AA,</	.	-trix	1A\	-trix	2c\	in-	1e/	.
!LO:TX:t=P:problem:kreska pseudotaktowa	!	!	!LO:TX:t=P:problem:kreska pseudotaktowa	!	!	!	!	!LO:TX:t=P:problem:kreska pseudotaktowa	!	!	!
2C/	.	in-	2C/	.	in-	.	.	2e\	-ter-	.	.
*	*	*	*	*	*	*	*	*	*	*Xlig	*
!	!	!	!	!	!	!	!	!	!	!LO:TX:t=P:problem:kreska pseudotaktowa	!
2AA/	.	-ter-	2AA/	.	-ter-	2r	.	2c\	-ce-	1e/,<	-trix
!	!	!	!LO:TX:t=P:problem:kreska pseudotaktowa	!	!	!LO:TX:t=P:problem:kreska pseudotaktowa	!	!	!	!	!
2.C/	.	-ce-	[2C/	.	-ce-	2c\	in-	[<2e\	.	.	.
=33-	=33-	=33-	=33-	=33-	=33-	=33-	=33-	=33-	=33-	=33-	=33-
!	!	!	!LO:N:xstem:cue	!	!	!	!	!LO:N:xstem:cue	!	!	!
.	.	.	4C/]	.	.	2A\	-ter-	4e\]	.	1e/	in-
4BB/	.	.	4BB/	.	.	.	.	4d\	.	.	.
4AA/	.	.	4AA/	.	.	2.c\	-ce-	4c/	.	.	.
!LO:TX:t=P:problem:kreska pseudotaktowa	!	!	!LO:TX:t=P:problem:kreska pseudotaktowa	!	!	!	!	!LO:TX:t=P:problem:kreska pseudotaktowa	!	!	!
4GG/	.	.	4GG/	.	.	.	.	4B/	.	.	.
*	*	*	*	*	*	*	*	*	*	*lig	*
!LO:TX:t=P:problem:kreska pseudotaktowa	!	!	!	!	!	!	!	!	!	!	!
(>1FF/	.	.	(>1FF/	.	.	.	.	4A/	.	1f/	-ter-
.	.	.	.	.	.	4B\	.	4G/	.	.	.
!	!	!	!	!	!	!LO:TX:t=P:problem:kreska pseudotaktowa	!	!	!	!	!
.	.	.	.	.	.	2A/	.	1c\	.	.	.
=34-	=34-	=34-	=34-	=34-	=34-	=34-	=34-	=34-	=34-	=34-	=34-
!LO:TX:t=P:problem:kreska pseudotaktowa	!	!	!	!	!	!	!	!	!	!	!
1GG/)	.	.	1GG/)	.	.	1G/	.	.	.	1d/	.
!	!	!	!	!	!	!	!	!LO:TX:t=P:problem:kreska pseudotaktowa	!	!	!
.	.	.	.	.	.	.	.	2B/	.	.	.
*	*	*	*	*	*	*	*	*	*	*Xlig	*
!LO:TX:t=P:problem:kreska pseudotaktowa	!	!	!LO:TX:t=P:problem:kreska pseudotaktowa	!	!	!	!	!	!	!	!
1AA/,<	.	-de	1AA/	.	-de	1E/,<	-de	2c,<\	-de	1c/	-ce-
!	!	!	!	!	!	!	!	!LO:TX:t=P:problem:kreska pseudotaktowa	!	!	!
.	.	.	.	.	.	.	.	2e\	in-	.	.
=35-	=35-	=35-	=35-	=35-	=35-	=35-	=35-	=35-	=35-	=35-	=35-
*	*	*	*	*	*	*	*	*	*	*lig	*
2r	.	.	2r	.	.	2A/	in-	2d\	-ter-	1d/	.
!	!	!	!	!	!	!LO:TX:t=P:problem:kreska pseudotaktowa	!	!	!	!	!
!LO:TX:t=P:problem:kreska pseudotaktowa	!	!	!LO:TX:t=P:problem:kreska pseudotaktowa	!	!	!LO:SIC:v:t=custos “F” na końcu linijki	!	!	!	!	!
2A\	.	in-	2A\	.	in-	2F/	-ter-	2.f\	-ce-	.	.
!	!	!	!	!	!	!LO:LB:g=original	!	!	!	!	!
2F\	.	-ter-	2F\	.	-ter-	2.A/	-ce-	.	.	1f/	.
.	.	.	.	.	.	.	.	4e\	.	.	.
!LO:TX:t=P:problem:kreska pseudotaktowa	!	!	!	!	!	!	!	!LO:TX:t=P:problem:kreska pseudotaktowa	!	!	!
[<2A\	.	-ce-	2.A\	.	-ce-	.	.	2c/	.	.	.
!	!	!	!	!	!	!LO:TX:t=P:problem:kreska pseudotaktowa	!	!	!	!	!
.	.	.	.	.	.	4G/	.	.	.	.	.
*	*	*	*	*	*	*	*	*	*	*Xlig	*
=36-	=36-	=36-	=36-	=36-	=36-	=36-	=36-	=36-	=36-	=36-	=36-
*	*	*	*	*	*	*	*	*	*	*lig	*
!LO:N:xstem:cue	!	!	!	!	!	!	!	!	!	!	!
4A\]	.	.	.	.	.	4F/	.	2d\	.	1e/	.
4G\ny	.	.	4G\	.	.	4E/	.	.	.	.	.
!	!	!	!	!	!	!LO:TX:t=P:problem:kreska pseudotaktowa	!	!LO:TX:t=P:problem:kreska pseudotaktowa	!	!	!
4F\	.	.	4F\	.	.	2D/	.	[<2f\	.	.	.
!LO:TX:t=P:problem:kreska pseudotaktowa	!	!	!LO:TX:t=P:problem:kreska pseudotaktowa	!	!	!	!	!	!	!	!
4E\	.	.	4E\	.	.	.	.	.	.	.	.
!	!	!	!	!	!	!	!	!LO:N:xstem:cue	!	!	!
4D/	.	.	4D/	.	.	0A\	.	4f\]	.	1f/	.
4C/	.	.	4C/	.	.	.	.	4e\	.	.	.
1D\	.	.	1.D\	.	.	.	.	4d\	.	.	.
!	!	!	!	!	!	!	!	!LO:TX:t=P:problem:kreska pseudotaktowa	!	!	!
.	.	.	.	.	.	.	.	4c\	.	.	.
*	*	*	*	*	*	*	*	*	*	*Xlig	*
=37-	=37-	=37-	=37-	=37-	=37-	=37-	=37-	=37-	=37-	=37-	=37-
!	!	!	!	!	!	!	!	!LO:TX:t=P:problem:kreska pseudotaktowa	!	!	!
!	!	!	!	!	!	!	!	!LO:SIC:v:t=custos “c” na końcu linijki	!	!	!
*	*	*	*	*	*	*	*	*	*	*lig	*
.	.	.	.	.	.	.	.	1d\	.	1f/	-de
2D/	.	.	.	.	.	.	.	.	.	.	.
!LO:TX:t=P:problem:kreska pseudotaktowa	!	!	!LO:TX:t=P:problem:kreska pseudotaktowa	!	!	!	!	!LO:LB:g=original	!	!LO:TX:t=P:problem:kreska pseudotaktowa	!
1AA/,<	.	-de	1AA/	.	-de	2.A\	.	2c,</	-de	1e/	.
!	!	!	!	!	!	!	!	!LO:TX:t=P:problem:kreska pseudotaktowa	!	!	!
.	.	.	.	.	.	.	.	2e\	pro	.	.
!	!	!	!	!	!	!LO:TX:t=P:problem:kreska pseudotaktowa	!	!	!	!	!
.	.	.	.	.	.	4B\	.	.	.	.	.
*	*	*	*	*	*	*	*	*	*	*Xlig	*
=38-	=38-	=38-	=38-	=38-	=38-	=38-	=38-	=38-	=38-	=38-	=38-
!	!	!	!	!	!	!LO:TX:t=P:problem:kreska pseudotaktowa	!	!LO:TX:t=P:problem:kreska pseudotaktowa	!	!	!
*	*	*	*	*	*	*	*	*	*	*lig	*
!LO:LB:g=original	!	!	!	!	!	!	!	!	!	!	!
2r	.	.	2r	.	.	1c\,<	-de	1e\	no-	1c/	pro
!LO:TX:t=P:problem:kreska pseudotaktowa	!	!	!LO:TX:t=P:problem:kreska pseudotaktowa	!	!	!	!	!	!	!	!
2E\	.	pro	2E\	.	pro	.	.	.	.	.	.
!	!	!	!	!	!	!	!	!	!	!LO:SIC:v:t=custos “d” na końcu linijki	!
2.F\	.	no-	2.F\	.	no-	2r	.	2d\	.	1d/	.
!	!	!	!	!	!	!LO:TX:t=P:problem:kreska pseudotaktowa	!	!	!	!	!
.	.	.	.	.	.	2A/	pro	1f\	.	.	.
!LO:TX:t=P:problem:kreska pseudotaktowa	!	!	!LO:TX:t=P:problem:kreska pseudotaktowa	!	!	!	!	!	!	!	!
4E\	.	.	4E\	.	.	.	.	.	.	.	.
*	*	*	*	*	*	*	*	*	*	*Xlig	*
=39-	=39-	=39-	=39-	=39-	=39-	=39-	=39-	=39-	=39-	=39-	=39-
*	*	*	*	*	*	*	*	*	*	*lig	*
!	!	!	!	!	!	!	!	!	!	!LO:LB:g=original	!
2D\	.	.	2D\	.	.	1.A\	no-	.	.	1d/	no-
1F\	.	.	1F\	.	.	.	.	4e\	.	.	.
!	!	!	!	!	!	!	!	!LO:TX:t=P:problem:kreska pseudotaktowa	!	!	!
.	.	.	.	.	.	.	.	4d\	.	.	.
.	.	.	.	.	.	.	.	2c\	.	1f/	.
!	!	!	!	!	!	!LO:TX:t=P:problem:kreska pseudotaktowa	!	!LO:TX:t=P:problem:kreska pseudotaktowa	!	!	!
4E\	.	.	4E\	.	.	2F/	.	2d\	.	.	.
!LO:TX:t=P:problem:kreska pseudotaktowa	!	!	!	!	!	!	!	!	!	!	!
4D\	.	.	4D\	.	.	.	.	.	.	.	.
*	*	*	*	*	*	*	*	*	*	*Xlig	*
=40-	=40-	=40-	=40-	=40-	=40-	=40-	=40-	=40-	=40-	=40-	=40-
*	*	*	*	*	*	*	*	*	*	*lig	*
2C/	.	.	2C/	.	.	2G/	.	2e\	.	1e/	.
!	!	!	!LO:TX:t=P:problem:kreska pseudotaktowa	!	!	!	!	!	!	!	!
!	!	!	!LO:SIC:v:t=custos “BB-” na końcu linijki	!	!	!LO:TX:t=P:problem:kreska pseudotaktowa	!	!LO:TX:t=P:problem:kreska pseudotaktowa	!	!	!
2AA/	.	.	2AA/	.	.	2A/	.	2c\	.	.	.
!	!	!	!LO:LB:g=original	!	!	!	!	!	!	!	!
0BB-X/	.	.	0BB-X/	.	.	1.F/	.	2d\	.	1d/	.
.	.	.	.	.	.	.	.	1f\	.	.	.
=41-	=41-	=41-	=41-	=41-	=41-	=41-	=41-	=41-	=41-	=41-	=41-
.	.	.	.	.	.	.	.	.	.	1d/	.
*	*	*	*	*	*	*	*	*	*	*Xlig	*
!	!	!	!	!	!	!LO:TX:t=P:problem:kreska pseudotaktowa	!	!	!	!	!
.	.	.	.	.	.	2G/	.	4e\	.	.	.
!	!	!	!	!	!	!	!	!LO:TX:t=P:problem:kreska pseudotaktowa	!	!	!
.	.	.	.	.	.	.	.	4d\	.	.	.
!LO:TX:t=P:problem:kreska pseudotaktowa	!	!	!LO:TX:t=P:problem:kreska pseudotaktowa	!	!	!	!	!	!	!	!
1AA/	.	-bis	1AA/	.	-bis	2A,<\	-bis	2.c/	.	[1e/;l	-bis.
!	!	!	!	!	!	!LO:TX:t=P:problem:kreska pseudotaktowa	!	!	!	!	!
.	.	.	.	.	.	2A\	pro	.	.	.	.
.	.	.	.	.	.	.	.	4d\	.	.	.
=42-	=42-	=42-	=42-	=42-	=42-	=42-	=42-	=42-	=42-	=42-	=42-
!	!	!	!	!	!	!	!	!LO:TX:t=P:problem:kreska pseudotaktowa	!	!	!
2rBB	.	.	2r	.	.	2.c\	no-	1e\	.	0e/_	.
!LO:TX:t=P:problem:kreska pseudotaktowa	!	!	!LO:TX:t=P:problem:kreska pseudotaktowa	!	!	!	!	!	!	!	!
2AA/	.	pro	2AA/	.	pro	.	.	.	.	.	.
!	!	!	!	!	!	!LO:TX:t=P:problem:kreska pseudotaktowa	!	!	!	!	!
.	.	.	.	.	.	4B\	.	.	.	.	.
2C/	.	no-	2C/	.	no-	2A/	.	2A/	.	.	.
!	!	!	!LO:TX:t=P:problem:kreska pseudotaktowa	!	!	!LO:TX:t=P:problem:kreska pseudotaktowa	!	!	!	!	!
2BBn/	.	.	2BBn/	.	.	2G#X/	.	1c\	.	.	.
=43-	=43-	=43-	=43-	=43-	=43-	=43-	=43-	=43-	=43-	=43-	=43-
2AA/	.	.	2AA/	.	.	2A\	.	.	.	0e/_	.
!LO:TX:t=P:problem:kreska pseudotaktowa	!	!	!	!	!	!LO:TX:t=P:problem:kreska pseudotaktowa	!	!LO:TX:t=P:problem:kreska pseudotaktowa	!	!	!
2GG#X/	.	.	2GG#X/	.	.	2B\	.	2B/	.	.	.
!LO:TX:t=P:problem:kreska pseudotaktowa	!	!	!	!	!	!	!	!	!	!	!
1AA/	.	.	1AA/	.	.	1c\	.	1A/	.	.	.
=44-	=44-	=44-	=44-	=44-	=44-	=44-	=44-	=44-	=44-	=44-	=44-
!LO:TX:b:i:t=alleluia da Capo.	!	!	!LO:TX:b:i:t=alleluia da Capo.	!	!	!LO:TX:b:i:t=alleluia Da Capo.	!	!LO:TX:b:i:t=Alleluia da Capo	!	!LO:TX:b:i:t=alleluia da Capo.	!
0E\;<	#	-bis.	0E\;	.	-bis.	0Bn\;	-bis.	0G#X/;	-bis.	0e/]	.
==	==	==	==	==	==	==	==	==	==	==	==
*-	*-	*-	*-	*-	*-	*-	*-	*-	*-	*-	*-
!!!RDF**kern: l = terminal long
!!!RDF**kern: > = above
!!!RDF**kern: < = below
!!!system-decoration: [(s1,s2,s3,s4)][(s5)]
!!!EED: Andrzej Borzym
!!!EST: 2021-03-29
!!!ENC: Tomasz Grochalski
!!!END: 2021-03-13
